X:110
T:Yellow Wattle, The
R:jig
H:See also #207
Z:id:hn-jig-110
M:6/8
K:Dmix
dcA AGE|~G3 GFG|dcA AGA|dcA GED|dcA AGE|~G3 GFG|EAB cde|dcA GED:|
~D3 ~c3|AdB cBc|AdB cde|dcA GED|~D3 ~c3|Adc d2c|AGA cde|dcA GED:|

